**kern	**kern
*part1	*part1
*staff2	*staff1
*I"Piano	*
*clefF4	*clefG2
*k[b-e-]	*k[b-e-]
=1	=1
*	*^
2.GG 2.G	2.b-	4r
.	.	4B- 4e- 4g
.	.	4B- 4e- 4g
=	=	=
2.EE- 2.E-	2.b-	4r
.	.	4B- 4e- 4g
.	.	4B- 4e- 4g-X
=	=	=
2.DD 2.D	2.f	4r
.	.	4F 4B- 4d
.	.	4F 4B- 4d
=	=	=
2DD 2D	2.b-	4r
.	.	4d 4f
4BBB- 4BB-	.	4d 4f 4dd
=	=	=
2.GG 2.G	2.cc	4r
.	.	4en 4g 4b-
.	.	4e 4g 4b-
*	*v	*v
=	=
2.FF 2.F	4r
.	4c 4e-X 4a
.	4c 4e- 4a
=	=
4BB-	4r
4FF	4F 4B- 4d
4DD	4F 4B- 4d
=	=
4BBB-	4r
4r	4F 4B- 4d
4r	4F 4B- 4d
=	=
*-	*-
!!!system-decoration: {(s1,s2)}
